source/images/glyphs/twitter-circle.svg

<svg width="19px" height="19px" viewBox="1 7 19 19" version="1.1" xmlns="http://www.w3.org/2000/svg" xmlns:xlink="http://www.w3.org/1999/xlink">
    <!-- Generator: Sketch 42 (36781) - http://www.bohemiancoding.com/sketch -->
    <desc>Created with Sketch.</desc>
    <defs></defs>
    <path d="M14.7756372,14.5082372 C14.7827743,14.6040783 14.7827743,14.6988999 14.7827743,14.7947411 C14.7827743,17.7117789 12.5631339,21.0713174 8.50619801,21.0713174 C7.2561846,21.0713174 6.09487523,20.7103837 5.11811108,20.0812986 C5.29551918,20.1016904 5.46680977,20.1088275 5.65135498,20.1088275 C6.68317682,20.1088275 7.63139254,19.7601288 8.38894553,19.1657097 C7.41931849,19.145318 6.60670781,18.5101154 6.32734102,17.6363295 C6.46396566,17.6567212 6.5995707,17.6709954 6.74333244,17.6709954 C6.94113228,17.6709954 7.1399517,17.6434666 7.32347733,17.595546 C6.31306681,17.3906091 5.55551382,16.502549 5.55551382,15.4299437 L5.55551382,15.4024148 C5.84915482,15.5675879 6.19071639,15.6695466 6.55266971,15.6828012 C5.95927019,15.2872015 5.56978803,14.6112155 5.56978803,13.8465254 C5.56978803,13.4356319 5.67786423,13.0604239 5.86954655,12.732117 C6.95540649,14.0708345 8.58776496,14.9456399 10.4189428,15.0404615 C10.3832573,14.8773276 10.3638852,14.706037 10.3638852,14.535766 C10.3638852,13.319399 11.3477864,12.3293802 12.5692514,12.3293802 C13.204454,12.3293802 13.7784814,12.5965119 14.1812181,13.025758 C14.6797961,12.9309364 15.1579823,12.7463912 15.5811108,12.4935337 C15.4179769,13.0053662 15.0692782,13.4356319 14.6114838,13.7088811 C15.055004,13.6609606 15.4852697,13.5386101 15.8818889,13.3673196 C15.5811108,13.8047223 15.2059029,14.1942045 14.7756372,14.5082372 M10.5005098,7 C5.25371613,7 1,11.2537161 1,16.5005098 C1,21.7462839 5.25371613,26 10.5005098,26 C15.7473035,26 20,21.7462839 20,16.5005098 C20,11.2537161 15.7473035,7 10.5005098,7" id="Twitter" stroke="none" fill="#FFFFFF" fill-rule="evenodd"></path>
</svg>

<svg width="19" height="19" viewBox="1 7 19 19" xmlns="http://www.w3.org/2000/svg">
    <path d="M14.776 14.508c.007.096.007.19.007.287 0 2.917-2.22 6.276-6.277 6.276-1.25 0-2.41-.36-3.388-.99.178.03.35.03.533.03 1.04 0 1.98-.35 2.74-.94-.97-.02-1.78-.65-2.06-1.53.14.02.28.04.42.04.2 0 .4-.027.58-.074a2.204 2.204 0 0 1-1.765-2.166v-.03c.293.166.635.268.997.28a2.208 2.208 0 0 1-.683-2.95 6.26 6.26 0 0 0 4.55 2.306 2.29 2.29 0 0 1-.056-.504 2.206 2.206 0 0 1 3.816-1.508c.5-.096.978-.28 1.4-.533-.162.51-.51.94-.97 1.218.445-.05.875-.17 1.272-.342-.3.438-.676.827-1.106 1.14M10.5 7C5.255 7 1 11.254 1 16.5S5.254 26 10.5 26a9.5 9.5 0 0 0 0-19" fill="#FFF" fill-rule="evenodd"/>
</svg>
